src/pos-icons/perspective-more.svg

<svg height="24" viewBox="0 0 24 24" width="24" xmlns="http://www.w3.org/2000/svg"><path d="m16.56 12 2.67 8h-14.45l2.66-8zm.44-11-4 4 4 4v-3h4v-2h-4zm-10 0v3h-4v2h4v3l4-4zm11 9h-12l-4 12h20z"/></svg>

<?xml version="1.0" encoding="UTF-8"?><!DOCTYPE svg PUBLIC "-//W3C//DTD SVG 1.1//EN" "http://www.w3.org/Graphics/SVG/1.1/DTD/svg11.dtd"><svg xmlns="http://www.w3.org/2000/svg" xmlns:xlink="http://www.w3.org/1999/xlink" version="1.1" id="mdi-perspective-more" width="24" height="24" viewBox="0 0 24 24"><path d="M16.56,12L19.23,20H4.78L7.44,12H16.56M17,1L13,5L17,9V6H21V4H17V1M7,1V4H3V6H7V9L11,5L7,1M18,10H6L2,22H22L18,10Z" /></svg>
